packages/merlin-www-assets/imports/tatler/icons/share-linkedin.svg

<svg xmlns="http://www.w3.org/2000/svg" viewBox="0 0 16 16"><path d="M14.8 0H1.2A1.16 1.16 0 0 0 0 1.2v13.7A1.13 1.13 0 0 0 1.2 16h13.6a1.16 1.16 0 0 0 1.2-1.2V1.2A1.16 1.16 0 0 0 14.8 0zM4.7 13.6H2.4V6h2.4v7.6h-.1zM3.6 5a1.43 1.43 0 0 1-1.4-1.4 1.37 1.37 0 0 1 1.4-1.4A1.37 1.37 0 0 1 5 3.6 1.59 1.59 0 0 1 3.6 5zm10 8.6h-2.4V9.9c0-.9 0-2-1.2-2s-1.4 1-1.4 2v3.8H6.2V6h2.3v1a2.44 2.44 0 0 1 2.2-1.2c2.4 0 2.8 1.6 2.8 3.6v4.2h.1z"/></svg>

<svg id="share-linkedin" xmlns="http://www.w3.org/2000/svg" viewBox="0 0 16 16"><title>share-linkedin</title><path d="M14.8,0H1.2A1.16,1.16,0,0,0,0,1.2V14.9A1.13,1.13,0,0,0,1.2,16H14.8A1.16,1.16,0,0,0,16,14.8V1.2A1.16,1.16,0,0,0,14.8,0ZM4.7,13.6H2.4V6H4.8v7.6H4.7ZM3.6,5A1.43,1.43,0,0,1,2.2,3.6,1.37,1.37,0,0,1,3.6,2.2,1.37,1.37,0,0,1,5,3.6,1.59,1.59,0,0,1,3.6,5Zm10,8.6H11.2V9.9c0-.9,0-2-1.2-2s-1.4,1-1.4,2v3.8H6.2V6H8.5V7h0a2.44,2.44,0,0,1,2.2-1.2c2.4,0,2.8,1.6,2.8,3.6v4.2h0.1Z"/></svg>
